X: 488
T: Cotton Eyed Joe
B: jims roots
B: ralph
M:2/4
L:1/16
Q: 1/4=100
K:A
V:1 
"A"Bccc cBAB | cBce f2e2 | BccB cBAE |[1 "E"FEFD E2EA :|[2 "E"FEFD E2E2||
|:"A"EF A2A2 Ac | BA "(D)"F2F2F2 | (3EFA A2A2 Ac | BA "E"F2E2E2 :|
|:"A"=c- y^c2A2(B2 B)=c- | ^c2A2(E2 E)=c- | ^c2A2 B2EE | "E"FEFD  "A"E2E2 :|
% abcbook-tune_id 6298c245629f22857140c521


% abcbook-boost 0
% abcbook-tablature 
% abcbook-transpose 
% abcbook-lastupdated 1665486327517
% abcbook-soundfonts 
% abcbook-repeats 1


